X:1
T:Mrs. McGrath
M:4/4
L:1/4
K:G
 z2 z D| G/2G/2 G E D| G G A G/2A/2| B/2B/2 B/2B/2 B/2A/2 G/2A/2| B D D D/2D/2|\
 d d c c/2c/2| B B A D| G/2G/2 G A G/2A/2| B d d B/2A/2| G E E2| D/2E/2 D/2B,/2 D z|\
 G G A d| B G G z|
